X: 11113
T: The SWELLING CANVASS
C: Lieut. Ross, R.N.
Q: "Moderate."
%R: march
B: W. Hamilton "Universal Tune-Book" Vol. 1 Glasgow 1844 p.111 #3
S: http://imslp.org/wiki/Hamilton's_Universal_Tune-Book_(Various)
Z: 2016 John Chambers <jc:trillian.mit.edu>
N: Both strains have 15 bars.
M: 2/4
L: 1/16
K: Eb
% - - - - - - - - - - - - - - - - - - - - - - - - -
(E3G) |\
B4 B4 | e6 (dc) | (B3G)(c3A) | F4 (B2G2) |\
E4 E4 | (E2F2)(G2A2) | (G4 F4) | z4 (E2G2) |\
B4 B4 | (B2G2) B4 | (edef) (fefg) | c4 e4 |\
(d2f2)(d2B2) | (d2c2)(B2=A2) | B4 z2 |]
(de) |\
f6 e2 | (e2d2)(c2B2) | a2(fg) (bagf) | g6 B2 |\
(cBcd) (edef) | (e2f2) (e2G2) | (G4 F4 ) | z4 (E3G) |\
B4 (B3G) | e4 e3B | (gfed) (efga) | Hb4 z2B2 |\
(cBcd) (ec)(BA) | G4 F2EF | E4 z2 |]
% - - - - - - - - - - - - - - - - - - - - - - - - -

%%sep 1 1 500
%%sep 1 1 500

